demos/KANBAN/public/icons/Inventory.svg

<svg width="24" height="24" viewBox="0 0 24 24" fill="none" xmlns="http://www.w3.org/2000/svg">
<path d="M6.39966 2.8056C6.5872 2.75275 6.80091 2.85913 6.85474 3.0722L7.4436 5.27142L12.0774 4.05658L12.1555 4.04388C12.3365 4.03196 12.5074 4.13519 12.5549 4.32416L13.5374 7.9599L17.1292 6.99994L17.2073 6.98724C17.3881 6.97529 17.5589 7.07799 17.6067 7.26654L19.4475 14.1015L21.092 13.6738L21.1702 13.6611C21.3512 13.6491 21.522 13.7524 21.5696 13.9413L22.01 15.5634L22.0354 15.6816C22.132 16.2718 21.7797 16.8747 21.1858 16.9902L21.1868 16.9911L15.2454 18.5566C15.3193 19.7233 14.5685 20.8112 13.3997 21.1152L13.4006 21.1161C12.2319 21.4433 11.0179 20.8695 10.51 19.8281L9.53052 20.0966H9.52954C9.32225 20.1484 9.10663 20.0455 9.052 19.83L5.05591 5.11517L3.15649 5.58978C2.66736 5.71199 2.13115 5.41922 1.98462 4.90619C1.83739 4.39059 2.15676 3.87827 2.66724 3.73236L2.66919 3.73138L6.39966 2.80463V2.8056ZM14.428 18.413C14.2482 17.514 13.2797 16.8605 12.2883 17.1308H12.2874C11.3421 17.3786 10.8023 18.3459 11.095 19.2919C11.3647 20.1688 12.2865 20.6652 13.1877 20.4179L13.3459 20.3642C14.1164 20.0644 14.6175 19.2777 14.428 18.414V18.413ZM2.85571 4.45502C2.73879 4.49232 2.70008 4.60492 2.72681 4.70697C2.74019 4.7576 2.76913 4.80098 2.80884 4.82709C2.84747 4.85249 2.9 4.86399 2.96802 4.84467H2.96997L5.24146 4.28802L5.25317 4.2851V4.28705H5.32251C5.46633 4.28705 5.60335 4.38901 5.67017 4.51849L5.69458 4.57611L5.69556 4.57806V4.57904L9.69165 19.2704L10.2717 19.1288C10.1773 18.4611 10.356 17.7402 10.8079 17.1953L10.3411 17.3163H10.3401C10.1326 17.368 9.91683 17.2647 9.86255 17.0488L6.21411 3.60931L2.85571 4.45502ZM13.6301 16.4619C14.2777 16.701 14.8126 17.218 15.0618 17.8564L20.9758 16.2929C21.1743 16.2386 21.2944 16.0581 21.2795 15.8603L21.2649 15.7744L20.9299 14.5244C18.6528 15.133 15.8601 15.8704 13.6301 16.4619ZM8.74438 10.0263L10.5022 16.4872L18.7249 14.3124L16.967 7.84955L8.74438 10.0263ZM7.65454 6.01654L8.53247 9.28021L12.7922 8.14838L11.9153 4.88373L7.65454 6.01654Z" fill="#5D6679" stroke="#5D6679" stroke-width="0.1"/>
</svg>

<svg xmlns="http://www.w3.org/2000/svg" width="24" height="24" fill="none"><path fill="#5D6679" stroke="#5D6679" stroke-width=".1" d="M6.4 2.806a.368.368 0 0 1 .455.266l.589 2.2 4.633-1.215.079-.013a.374.374 0 0 1 .399.28l.982 3.636L17.13 7l.078-.013c.181-.012.352.091.4.28l1.84 6.834 1.645-.427.078-.013a.374.374 0 0 1 .4.28l.44 1.622.025.119c.097.59-.255 1.193-.85 1.308l.002.001-5.942 1.566a2.477 2.477 0 0 1-1.845 2.558v.001a2.482 2.482 0 0 1-2.89-1.288l-.98.269c-.208.051-.423-.052-.478-.267L5.056 5.115l-1.9.475a.986.986 0 0 1-1.171-.684c-.148-.515.172-1.028.682-1.174h.002l3.73-.927Zm8.028 15.607c-.18-.899-1.148-1.553-2.14-1.282a1.695 1.695 0 0 0-1.193 2.16 1.702 1.702 0 0 0 2.093 1.127l.158-.054c.77-.3 1.271-1.086 1.082-1.95v-.001ZM2.856 4.455c-.117.037-.156.15-.13.252.014.05.043.094.083.12a.186.186 0 0 0 .159.018h.002l2.271-.557.012-.003v.002h.07c.143 0 .28.102.347.231l.025.058v.003L9.693 19.27l.58-.141a2.504 2.504 0 0 1 .536-1.934l-.467.121c-.208.052-.424-.051-.478-.267L6.214 3.609l-3.358.846ZM13.63 16.462c.648.239 1.183.756 1.432 1.394l5.914-1.563a.41.41 0 0 0 .303-.433l-.014-.086-.335-1.25c-2.277.609-5.07 1.346-7.3 1.938Zm-4.886-6.436 1.758 6.461 8.223-2.175-1.758-6.462-8.223 2.176Zm-1.09-4.01.878 3.264 4.26-1.132-.877-3.264-4.26 1.133Z"/></svg>
